packages/core/src/svgs/wallets/mono/backpack.svg

<svg width="24" height="24" viewBox="0 0 24 24" fill="none" xmlns="http://www.w3.org/2000/svg">
<path fill-rule="evenodd" clip-rule="evenodd" d="M13.3262 3.57259C14.0663 3.57259 14.7606 3.67004 15.4034 3.85077C14.7741 2.41022 13.4674 2 12.0132 2C10.5561 2 9.24721 2.41183 8.61932 3.85926C9.2574 3.67217 9.94867 3.57259 10.6863 3.57259H13.3262ZM10.517 5.01884C7.00245 5.01884 5 7.73437 5 11.0841V14.5252C5 14.8602 5.28491 15.1252 5.63636 15.1252H18.3636C18.7151 15.1252 19 14.8602 19 14.5252V11.0841C19 7.73437 16.6714 5.01884 13.1569 5.01884H10.517ZM11.995 11.1139C13.2251 11.1139 14.2223 10.1345 14.2223 8.92637C14.2223 7.71823 13.2251 6.73884 11.995 6.73884C10.7649 6.73884 9.76775 7.71823 9.76775 8.92637C9.76775 10.1345 10.7649 11.1139 11.995 11.1139ZM5 17.1478C5 16.8128 5.28491 16.5412 5.63636 16.5412H18.3636C18.7151 16.5412 19 16.8128 19 17.1478V20.7869C19 21.4568 18.4302 22 17.7273 22H6.27273C5.56982 22 5 21.4568 5 20.7869V17.1478Z" fill="white"/>
</svg>

<svg xmlns="http://www.w3.org/2000/svg" width="24" height="24" fill="none" viewBox="0 0 24 24">
    <path fill="#fff" fill-rule="evenodd" d="M13.326 3.573c.74 0 1.435.097 2.077.278C14.774 2.41 13.467 2 12.013 2c-1.457 0-2.766.412-3.394 1.86a7.3 7.3 0 0 1 2.067-.287zm-2.809 1.446C7.002 5.019 5 7.734 5 11.084v3.441c0 .335.285.6.636.6h12.728c.351 0 .636-.265.636-.6v-3.44c0-3.35-2.329-6.066-5.843-6.066zm1.478 6.095c1.23 0 2.227-.98 2.227-2.188s-.997-2.187-2.227-2.187-2.227.98-2.227 2.187c0 1.208.997 2.188 2.227 2.188M5 17.148c0-.335.285-.607.636-.607h12.728c.351 0 .636.272.636.607v3.639c0 .67-.57 1.213-1.273 1.213H6.273C5.57 22 5 21.457 5 20.787z" clip-rule="evenodd"/>
</svg>
